public/Group 20.svg

<svg width="205" height="249" viewBox="0 0 205 249" fill="none" xmlns="http://www.w3.org/2000/svg">
<path d="M100.975 0.0366985C108.14 -0.465479 110.496 4.28461 116.039 8.25264C135.601 22.2642 157.988 31.4228 181.775 35.0451C188.358 36.0453 195.819 36.5804 202.127 38.4698C203.954 38.939 204.686 42.1373 204.75 43.9031C205.072 52.8929 204.833 62.0721 204.805 71.0784L204.825 104.004C204.794 132.109 203.238 148.031 189.376 173.798C173.779 202.793 149.993 222.658 121.906 239.102C118.145 241.304 108.103 247.343 104.529 248.409C98.6619 248.108 91.4952 243.177 86.4015 240.358C61.2987 226.457 41.8173 210.202 24.7272 187.316C0.00968556 154.213 -0.778198 118.649 0.275195 79.0967C0.432031 67.6413 -0.203546 54.3542 0.8482 42.8453C1.44344 36.3293 10.1744 36.8521 15.6286 36.2306C39.3277 33.5344 62.6345 26.0018 82.884 13.258C89.1982 9.28171 94.89 4.3546 100.975 0.0366985ZM18.7509 154.032C20.2847 160.47 23.5667 166.138 26.8056 171.847C44.4691 202.97 72.4345 221.114 103.083 237.616C105.48 237.073 114.007 231.858 116.456 230.446C138.509 217.698 161.593 199.191 175.222 177.421C179.84 170.082 183.682 162.281 186.686 154.144L125.789 98.019L109.55 82.929C108.058 81.5418 104.578 77.6561 102.81 77.2321C82.2085 96.8212 60.1943 115.731 39.4763 135.242C33.0502 141.293 24.8066 148.01 18.7509 154.032ZM11.1961 47.3485C11.5633 62.7966 11.1915 78.7304 11.2887 94.2197C11.406 112.841 10.4605 125.635 15.2606 143.692C19.4623 139.379 24.0517 135.584 28.4513 131.48C39.6508 121.041 50.9121 110.672 62.234 100.369L84.7611 79.5907C89.6811 74.9764 94.6381 70.1317 99.8334 65.8014C101.106 64.7394 102.764 64.6983 104.389 64.6077C108.418 66.5629 122.699 81.0561 126.915 85.0077L168.86 123.935C175.957 130.43 183.067 137.526 190.617 143.429C191.786 137.024 193.603 129.549 193.919 123.083C195.147 97.9861 193.319 72.3873 194.487 47.3196C170.557 44.2448 152.215 40.1862 130.61 29.4265C125.973 27.1173 121.477 24.5364 117.146 21.6921C114.916 20.1979 104.234 12.0272 102.861 11.8914C97.3709 15.9376 91.5948 20.1979 85.77 23.709C65.1245 36.1565 35.3714 45.9448 11.1961 47.3485Z" fill="#FD6610"/>
<path d="M79.7085 166.04C81.4814 166.019 84.2868 166.015 85.7975 165.974C96.5537 165.686 98.6609 165.365 98.3122 176.964C98.2221 179.977 98.6156 184.176 97.2642 187.193C96.7612 188.317 95.665 188.44 94.6334 188.782C91.3798 188.868 77.4461 190.194 76.7743 186.641C75.8057 181.521 75.5826 172.984 77.046 167.847C77.3428 166.805 78.8025 166.32 79.7085 166.04Z" fill="#FD6610"/>
<path d="M110.305 134.321C114.352 134.23 122.307 133.901 125.942 134.362C131.278 135.033 129.754 150.79 129.031 154.507C128.786 155.766 127.547 156.355 126.468 156.824C123.522 156.832 109.784 158.071 108.579 155.21C106.679 150.699 107.36 141.989 107.845 137.009C107.991 135.506 109.21 134.988 110.305 134.321Z" fill="#FD6610"/>
<path d="M111.448 166.032C114.077 166.007 125.724 165.629 127.367 166.781C130.702 169.119 129.828 183.073 128.787 186.893C128.465 188.07 126.984 188.515 125.933 188.836C124.51 188.857 121.787 188.856 120.604 188.902C107.432 189.4 106.989 188.363 107.414 175.347C107.545 171.334 106.886 167.283 111.448 166.032Z" fill="#FD6610"/>
<path d="M79.252 134.226C83.2421 134.172 94.5454 133.188 97.0593 135.88C98.7878 139.766 98.4128 149.645 97.7628 154.066C97.5314 155.642 96.6567 156.075 95.5374 156.778C92.1599 157.009 79.3101 157.667 77.2255 155.671C75.4003 152.02 76.0614 141.828 76.6007 137.535C76.8312 135.699 77.7747 135.144 79.252 134.226Z" fill="#FD6610"/>
</svg>

<svg xmlns="http://www.w3.org/2000/svg" width="205" height="249" fill="none" viewBox="0 0 205 249"><path fill="#fd6610" d="M100.98.04c7.16-.5 9.52 4.24 15.06 8.21a152 152 0 0 0 65.74 26.8c6.58 1 14.04 1.53 20.35 3.42 1.82.47 2.56 3.67 2.62 5.43.32 9 .08 18.17.06 27.18l.01 32.92c-.03 28.1-1.58 44.03-15.44 69.8-15.6 29-39.39 48.86-67.47 65.3-3.77 2.2-13.8 8.24-17.38 9.3-5.87-.3-13.03-5.22-18.13-8.04-25.1-13.9-44.58-30.16-61.67-53.04C0 154.22-.77 118.65.28 79.1.43 67.64-.2 54.35.85 42.85c.6-6.52 9.32-6 14.78-6.62 23.7-2.7 47-10.23 67.25-22.97C89.2 9.28 94.9 4.36 100.98.04m-82.23 154c1.53 6.43 4.82 12.1 8.06 17.8 17.66 31.13 45.62 49.27 76.27 65.78 2.4-.55 10.93-5.76 13.38-7.17 22.05-12.75 45.13-31.26 58.76-53.03a125 125 0 0 0 11.47-23.28l-60.9-56.12-16.24-15.1c-1.5-1.38-4.97-5.26-6.74-5.69-20.6 19.6-42.62 38.5-63.33 58.01-6.43 6.05-14.67 12.77-20.73 18.8M11.2 47.33c.36 15.46 0 31.39.09 46.88.12 18.62-.83 31.42 3.97 49.47 4.2-4.31 8.8-8.1 13.2-12.21q16.8-15.65 33.77-31.11l22.53-20.78c4.92-4.61 9.88-9.46 15.07-13.79 1.28-1.06 2.93-1.1 4.56-1.2 4.03 1.96 18.3 16.46 22.53 20.4l41.94 38.94c7.1 6.49 14.2 13.59 21.76 19.49 1.17-6.4 2.98-13.88 3.3-20.35 1.23-25.1-.6-50.7.57-75.76-23.93-3.08-42.28-7.13-63.88-17.9a131 131 0 0 1-13.46-7.73c-2.23-1.5-12.92-9.66-14.29-9.8-5.49 4.05-11.27 8.3-17.09 11.82-20.65 12.45-50.4 22.23-74.57 23.64"/><path fill="#fd6610" d="M79.7 166.04c1.78-.02 4.59-.03 6.1-.07 10.75-.28 12.86-.6 12.51 11-.09 3 .3 7.2-1.05 10.22-.5 1.13-1.6 1.25-2.63 1.6-3.25.08-17.18 1.4-17.86-2.15-.96-5.12-1.19-13.66.28-18.8.3-1.03 1.75-1.52 2.66-1.8m30.59-31.72c4.05-.09 12-.42 15.64.04 5.34.67 3.81 16.43 3.1 20.15-.25 1.26-1.5 1.84-2.57 2.31-2.95.01-16.69 1.25-17.9-1.61-1.9-4.51-1.21-13.22-.72-18.2.14-1.5 1.36-2.02 2.46-2.69m1.14 31.71c2.63-.02 14.27-.4 15.92.75 3.33 2.34 2.46 16.3 1.42 20.11-.32 1.18-1.8 1.63-2.86 1.95-1.42.02-4.14.02-5.33.06-13.17.5-13.61-.54-13.19-13.55.14-4.02-.52-8.07 4.04-9.32m-32.2-31.8c4-.06 15.3-1.04 17.8 1.65 1.74 3.89 1.36 13.77.71 18.19-.23 1.57-1.1 2-2.22 2.7-3.38.24-16.23.9-18.31-1.1-1.83-3.65-1.17-13.84-.63-18.13.23-1.84 1.17-2.4 2.65-3.31"/></svg>
